X:1
T:It Is Mine
T:It Is Mine
T:William Edie Marks
T:Elisha Albright Hoffman, 1902
T:Public Domain Courtesy of the Cyber Hymnal™
T:Public Domain Courtesy of the Cyber Hymnal™
C:William Edie Marks
Z:Public Domain
Z:Courtesy of the Cyber Hymnal™
%%score ( 1 2 ) ( 3 4 )
L:1/8
Q:1/4=104
M:4/4
K:Bb
V:1 treble 
V:2 treble 
V:3 bass 
V:4 bass 
V:1
 [DF][CE] | [B,D]2 [DF]2 E2 [EG]2 | [DF][DF][DB][Ec] [Fd]2 [Fd]>[Ge] | %3
w: 1.~God’s a-|bid- ing peace is|in my soul to- day, Yes, I|
w: 2.~He has|wrought in me a|sweet and per- fect rest, In my|
w: 3.~He has|giv- en me a|nev- er fail- ing joy, Oh, I|
w: 4.~Oh, the|love of God is|com- fort- ing my soul, For His|
 [Fd]2 [Ec]2 [EF]2 [Ec]>[Fd] | [Ec]2 [DB]2 [DF]2 [DF][CE] | [B,D]2 [DF]2 E2 [EG]2 | %6
w: feel it now, yes, I|feel it now; He has|tak- en all my|
w: rap- tured heart I can|feel it now; He each|pass- ing mo- ment|
w: have it now! oh, I|have it now! To His|praise I will my|
w: love is mine, yes, His|love is mine! Waves of|joy and glad- ness|
 [DF][DF][DB][Ec] | [Fd]2 [Fd]>[Ge] | [Fd]2 [Ec]2 [EF]2 [Ec]2 | [DB]6 ||"^Refrain" [B,D][CE] | %11
w: doubts and fears a-|way, Tho’ I|can- not tell you|how.||
w: keeps me saved and|blest, Floods with|light my heart and|brow.|It is|
w: ran- somed pow’rs em-|ploy, And re-|new my grate- ful|vow.||
w: o’er my spir- it|roll, Thrill- ing|me with life di-|vine.||
 F4 G4 | [DF][DF][FB][Fc] [Fd]2 [Fd]>[Ge] | [Fd]2 [Ec]2 [EF]2 [Ec]>[Fd] | %14
w: |||
w: mine, mine,|bless- èd be His name! He has|giv- en peace, per- fect|
w: |||
w: |||
 [Ec]2 [DB]2 [DF]2 [B,D][CE] | F4 G4 | [DF][DF][FB][Fc] [Fd]2 [Fd]>[Ge] | [Fd]2 [Ec]2 [EF]2 [Ec]2 | %18
w: ||||
w: peace to me; It is|mine, mine,|bless- èd be His name! Mine for|all e- ter- ni-|
w: ||||
w: ||||
 [DB]6 |] %19
w: |
w: ty!|
w: |
w: |
V:2
 x2 | x4 E2 x2 | x8 | x8 | x8 | x4 E2 x2 | x4 | x4 | x8 | x6 || x2 | (DDDD) (EEEE) | x8 | x8 | x8 | %15
 (DDDD) (EEEE) | x8 | x8 | x6 |] %19
V:3
 [B,,F,][B,,F,] | [B,,F,]2 [B,,B,]2 [E,G,]2 [E,B,]2 | %2
w: ~ ~|~ ~ ~ ~|
 [B,,B,][B,,B,][B,,F,][B,,F,] [B,,B,]2 [B,,B,]>[B,,B,] | [F,B,]2 [F,A,]2 [F,A,]2 [F,A,]>F, | %4
w: ~ ~ ~ ~ ~ ~ ~|~ ~ ~ ~ ~|
 [B,,F,]2 [B,,F,]2 [B,,B,]2 [B,,B,][B,,B,] | [B,,F,]2 [B,,_A,]2 [E,G,]2 [E,B,]2 | %6
w: ~ ~ ~ ~ ~|~ ~ ~ ~|
 [B,,B,][B,,B,][B,,F,][B,,F,] | [B,,B,]2 [B,,B,]>[B,,B,] | [F,B,]2 [F,A,]2 [F,A,]2 [F,A,]2 | %9
w: ~ ~ ~ ~|~ ~ ~|~ ~ ~ ~|
 [B,,B,]6 || [B,,F,][B,,F,] | [B,,B,][B,,B,][B,,B,][B,,B,] [E,B,][E,B,][E,B,][E,B,] | %12
w: ~|It is|mine, this price- less trea- sure, ev- er|
 [B,,B,][B,,B,][D,B,][F,A,] B,2 [B,,B,]>[B,,B,] | [F,B,]2 [F,A,]2 [F,A,]2 [F,A,]>[F,A,] | %14
w: ~ ~ ~ ~ ~ ~ ~|~ ~ ~ ~ ~|
 [B,,F,]2 [B,,F,]2 [B,,B,]2 [B,,F,][B,,F,] | %15
w: ~ ~ ~ ~ ~|
 [B,,B,][B,,B,][B,,B,][B,,B,] [E,B,][E,B,][E,B,][E,B,] | %16
w: mine, this price- less trea- sure, ev- er|
 [B,,B,][B,,B,][D,B,][F,A,] B,2 [B,,B,]>[E,B,] | [F,B,]2 [F,A,]2 [F,A,]2 F,2 | [B,,F,]6 |] %19
w: |||
V:4
 x2 | x8 | x8 | x15/2 F,/ | x8 | x8 | x4 | x4 | x8 | x6 || x2 | x8 | x4 B,2 x2 | x8 | x8 | x8 | %16
 x4 B,2 x2 | x6 F,2 | x6 |] %19

